packages/client-flutter/assets/icon/context/local.svg

<svg width="22" height="22" viewBox="0 0 22 22" fill="none" xmlns="http://www.w3.org/2000/svg">
<path fill-rule="evenodd" clip-rule="evenodd" d="M22,11c0,6.0751 -4.9249,11 -11,11c-6.07513,0 -11,-4.9249 -11,-11c0,-6.07513 4.92487,-11 11,-11c6.0751,0 11,4.92487 11,11zM2,11c0,4.9706 4.02944,9 9,9c4.9706,0 9,-4.0294 9,-9c0,-4.97056 -4.0294,-9 -9,-9c-4.97056,0 -9,4.02944 -9,9z" fill="#649AA6"/>
<path d="M9.243,15.314l-4.243,-4.244l1.5648,-1.56482l2.65403,2.65312l5.50517,-5.5062l1.59,1.58991z" fill="#649AA6"/>
</svg>

<svg width="22" height="22" viewBox="0 0 22 22" fill="none" xmlns="http://www.w3.org/2000/svg">
<path d="M9.243 15.314L5 11.07L6.5648 9.50517L9.21883 12.1583L14.724 6.65209L16.314 8.242L9.243 15.314Z" fill="#649AA6"/>
<path fill-rule="evenodd" clip-rule="evenodd" d="M0 11C0 4.925 4.925 0 11 0C17.075 0 22 4.925 22 11C22 17.075 17.075 22 11 22C4.925 22 0 17.075 0 11ZM11 20C9.8181 20 8.64778 19.7672 7.55585 19.3149C6.46392 18.8626 5.47177 18.1997 4.63604 17.364C3.80031 16.5282 3.13738 15.5361 2.68508 14.4442C2.23279 13.3522 2 12.1819 2 11C2 9.8181 2.23279 8.64778 2.68508 7.55585C3.13738 6.46392 3.80031 5.47177 4.63604 4.63604C5.47177 3.80031 6.46392 3.13738 7.55585 2.68508C8.64778 2.23279 9.8181 2 11 2C13.3869 2 15.6761 2.94821 17.364 4.63604C19.0518 6.32387 20 8.61305 20 11C20 13.3869 19.0518 15.6761 17.364 17.364C15.6761 19.0518 13.3869 20 11 20Z" fill="#649AA6"/>
</svg>
